X: 4085
T: Blockers, The
R: reel
M: 4/4
K: Gmixolydian
A2|:Bcdc BG (3GAG|=FDCD FG Ac|dg (3gfg fgag|fdc^A =A=F (3FEF|
Bcdc BG (3GAG|=FDCD FG Ac|dg (3gfg fgag|1 fdcA G2 A2:|2 fdcA GABd||
|:g2 dg BgdB|cBcd cAFA|DG (3GFG FGAc|Bcde fdef|
g2 dg BgdB|cBcd cA F2|DG (3GFG FGAc|1 BGAF GABd:|2 BGAF G2 A2||

